source/manual/Azure Service Fabric Mesh_COLOR.svg

<svg aria-hidden="true" role="presentation">
<defs>
    <style type="text/css">
      <![CDATA[
        .msportalfx-svg-c01{fill:#fff}.msportalfx-svg-c02{fill:#e5e5e5}.msportalfx-svg-c03{fill:#a0a1a2}.msportalfx-svg-c04{fill:#7a7a7a}.msportalfx-svg-c05{fill:#3e3e3e}.msportalfx-svg-c06{fill:#1e1e1e}.msportalfx-svg-c07{fill:#0f0f0f}.msportalfx-svg-c08{fill:#ba141a}.msportalfx-svg-c09{fill:#dd5900}.msportalfx-svg-c10{fill:#ff8c00}.msportalfx-svg-c11{fill:#fcd116}.msportalfx-svg-c12{fill:#fee087}.msportalfx-svg-c13{fill:#b8d432}.msportalfx-svg-c14{fill:#7fba00}.msportalfx-svg-c15{fill:#59b4d9}.msportalfx-svg-c16{fill:#3999c6}.msportalfx-svg-c17{fill:#804998}.msportalfx-svg-c18{fill:#ec008c}.msportalfx-svg-c19{fill:#0072c6}.msportalfx-svg-c20{fill:#68217a}.msportalfx-svg-c21{fill:#00188f}.msportalfx-svg-c22{fill:#e81123}.msportalfx-svg-c23{fill:#cae3f3}.msportalfx-svg-c24{fill:#59aed3}.msportalfx-svg-c25{fill:#4c3b12}.msportalfx-svg-c26{fill:#be9555}.msportalfx-svg-c27{fill:#4f4d52}.msportalfx-svg-c28{fill:#ef6f59}.msportalfx-svg-c29{fill:#f7cb64}.msportalfx-svg-c97{fill:#ffb900}.msportalfx-svg-c98{fill:#00a4ef}.msportalfx-svg-c99{fill:#f25022}
      ]]>
    </style>
  </defs>
<g><title></title><path d="M47.465 21.535c-1.349-1.349-3.284-1.726-4.982-1.173l-3.8-3.8a4 4 0 0 0-5.245-5.245l-3.8-3.8c.553-1.698.176-3.633-1.173-4.982a4.9 4.9 0 0 0-6.93 0c-1.349 1.349-1.726 3.284-1.173 4.982l-3.8 3.8a4 4 0 0 0-5.245 5.245l-3.8 3.8c-1.698-.553-3.633-.176-4.982 1.173a4.9 4.9 0 0 0 0 6.93c1.349 1.349 3.284 1.726 4.982 1.173l3.8 3.8a4 4 0 0 0 5.245 5.245l3.8 3.8c-.553 1.698-.176 3.633 1.173 4.982a4.9 4.9 0 0 0 6.93 0c1.349-1.349 1.726-3.284 1.173-4.982l3.8-3.8a4 4 0 0 0 5.245-5.245l3.8-3.8c1.698.553 3.633.176 4.982-1.173a4.901 4.901 0 0 0 0-6.93zM22.152 40.031l-3.469-3.469c.204-.48.317-1.008.317-1.562s-.113-1.082-.317-1.562L25 27.121l6.317 6.317C31.113 33.918 31 34.446 31 35s.113 1.082.317 1.562l-3.469 3.469a4.883 4.883 0 0 0-5.696 0zM9.969 22.152l3.469-3.469c.48.204 1.008.317 1.562.317s1.082-.113 1.562-.317L22.879 25l-6.317 6.317C16.082 31.113 15.554 31 15 31s-1.082.113-1.562.317l-3.469-3.469a4.883 4.883 0 0 0 0-5.696zM27.848 9.969l3.469 3.469C31.113 13.918 31 14.446 31 15s.113 1.082.317 1.562L25 22.879l-6.317-6.317c.204-.48.317-1.008.317-1.562s-.113-1.082-.317-1.562l3.469-3.469a4.883 4.883 0 0 0 5.696 0zM35 31c-.554 0-1.082.113-1.562.317L27.121 25l6.317-6.317c.48.204 1.008.317 1.562.317s1.082-.113 1.562-.317l3.469 3.469a4.88 4.88 0 0 0 0 5.696l-3.469 3.469A3.984 3.984 0 0 0 35 31z" class="msportalfx-svg-c09"></path></g>
</svg>

<?xml version="1.0" encoding="UTF-8" standalone="no"?>
<svg
   xmlns:dc="http://purl.org/dc/elements/1.1/"
   xmlns:cc="http://creativecommons.org/ns#"
   xmlns:rdf="http://www.w3.org/1999/02/22-rdf-syntax-ns#"
   xmlns:svg="http://www.w3.org/2000/svg"
   xmlns="http://www.w3.org/2000/svg"
   xmlns:sodipodi="http://sodipodi.sourceforge.net/DTD/sodipodi-0.dtd"
   xmlns:inkscape="http://www.inkscape.org/namespaces/inkscape"
   aria-hidden="true"
   role="presentation"
   version="1.1"
   id="svg12"
   sodipodi:docname="Azure Service Fabric Mesh_COLOR.svg"
   width="47.800293"
   height="47.800709"
   inkscape:version="0.92.2 (5c3e80d, 2017-08-06)">
  <metadata
     id="metadata16">
    <rdf:RDF>
      <cc:Work
         rdf:about="">
        <dc:format>image/svg+xml</dc:format>
        <dc:type
           rdf:resource="http://purl.org/dc/dcmitype/StillImage" />
      </cc:Work>
    </rdf:RDF>
  </metadata>
  <sodipodi:namedview
     pagecolor="#ffffff"
     bordercolor="#666666"
     borderopacity="1"
     objecttolerance="10"
     gridtolerance="10"
     guidetolerance="10"
     inkscape:pageopacity="0"
     inkscape:pageshadow="2"
     inkscape:window-width="640"
     inkscape:window-height="480"
     id="namedview14"
     showgrid="false"
     inkscape:zoom="2.36"
     inkscape:cx="48.900354"
     inkscape:cy="-1.0996464"
     inkscape:window-x="0"
     inkscape:window-y="0"
     inkscape:window-maximized="0"
     inkscape:current-layer="svg12" />
  <defs
     id="defs4">
    <style
       type="text/css"
       id="style2"><![CDATA[
        .msportalfx-svg-c01{fill:#fff}.msportalfx-svg-c02{fill:#e5e5e5}.msportalfx-svg-c03{fill:#a0a1a2}.msportalfx-svg-c04{fill:#7a7a7a}.msportalfx-svg-c05{fill:#3e3e3e}.msportalfx-svg-c06{fill:#1e1e1e}.msportalfx-svg-c07{fill:#0f0f0f}.msportalfx-svg-c08{fill:#ba141a}.msportalfx-svg-c09{fill:#dd5900}.msportalfx-svg-c10{fill:#ff8c00}.msportalfx-svg-c11{fill:#fcd116}.msportalfx-svg-c12{fill:#fee087}.msportalfx-svg-c13{fill:#b8d432}.msportalfx-svg-c14{fill:#7fba00}.msportalfx-svg-c15{fill:#59b4d9}.msportalfx-svg-c16{fill:#3999c6}.msportalfx-svg-c17{fill:#804998}.msportalfx-svg-c18{fill:#ec008c}.msportalfx-svg-c19{fill:#0072c6}.msportalfx-svg-c20{fill:#68217a}.msportalfx-svg-c21{fill:#00188f}.msportalfx-svg-c22{fill:#e81123}.msportalfx-svg-c23{fill:#cae3f3}.msportalfx-svg-c24{fill:#59aed3}.msportalfx-svg-c25{fill:#4c3b12}.msportalfx-svg-c26{fill:#be9555}.msportalfx-svg-c27{fill:#4f4d52}.msportalfx-svg-c28{fill:#ef6f59}.msportalfx-svg-c29{fill:#f7cb64}.msportalfx-svg-c97{fill:#ffb900}.msportalfx-svg-c98{fill:#00a4ef}.msportalfx-svg-c99{fill:#f25022}
      ]]></style>
  </defs>
  <g
     id="g10"
     transform="translate(-1.0996464,-1.0996464)">
    <title
       id="title6" />
    <path
       d="m 47.465,21.535 c -1.349,-1.349 -3.284,-1.726 -4.982,-1.173 l -3.8,-3.8 a 4,4 0 0 0 -5.245,-5.245 l -3.8,-3.8 C 30.191,5.819 29.814,3.884 28.465,2.535 a 4.9,4.9 0 0 0 -6.93,0 c -1.349,1.349 -1.726,3.284 -1.173,4.982 l -3.8,3.8 a 4,4 0 0 0 -5.245,5.245 l -3.8,3.8 C 5.819,19.809 3.884,20.186 2.535,21.535 a 4.9,4.9 0 0 0 0,6.93 c 1.349,1.349 3.284,1.726 4.982,1.173 l 3.8,3.8 a 4,4 0 0 0 5.245,5.245 l 3.8,3.8 c -0.553,1.698 -0.176,3.633 1.173,4.982 a 4.9,4.9 0 0 0 6.93,0 c 1.349,-1.349 1.726,-3.284 1.173,-4.982 l 3.8,-3.8 a 4,4 0 0 0 5.245,-5.245 l 3.8,-3.8 c 1.698,0.553 3.633,0.176 4.982,-1.173 a 4.901,4.901 0 0 0 0,-6.93 z M 22.152,40.031 18.683,36.562 C 18.887,36.082 19,35.554 19,35 19,34.446 18.887,33.918 18.683,33.438 L 25,27.121 31.317,33.438 C 31.113,33.918 31,34.446 31,35 c 0,0.554 0.113,1.082 0.317,1.562 l -3.469,3.469 a 4.883,4.883 0 0 0 -5.696,0 z M 9.969,22.152 13.438,18.683 C 13.918,18.887 14.446,19 15,19 c 0.554,0 1.082,-0.113 1.562,-0.317 L 22.879,25 16.562,31.317 C 16.082,31.113 15.554,31 15,31 c -0.554,0 -1.082,0.113 -1.562,0.317 L 9.969,27.848 a 4.883,4.883 0 0 0 0,-5.696 z M 27.848,9.969 31.317,13.438 C 31.113,13.918 31,14.446 31,15 c 0,0.554 0.113,1.082 0.317,1.562 L 25,22.879 18.683,16.562 C 18.887,16.082 19,15.554 19,15 19,14.446 18.887,13.918 18.683,13.438 l 3.469,-3.469 a 4.883,4.883 0 0 0 5.696,0 z M 35,31 c -0.554,0 -1.082,0.113 -1.562,0.317 L 27.121,25 33.438,18.683 C 33.918,18.887 34.446,19 35,19 c 0.554,0 1.082,-0.113 1.562,-0.317 l 3.469,3.469 a 4.88,4.88 0 0 0 0,5.696 l -3.469,3.469 A 3.984,3.984 0 0 0 35,31 Z"
       class="msportalfx-svg-c09"
       id="path8"
       inkscape:connector-curvature="0"
       style="fill:#dd5900" />
  </g>
</svg>
